src/assets/quote_rounded.svg

<svg width="104" height="104" viewBox="0 0 104 104" fill="none" xmlns="http://www.w3.org/2000/svg">
<g id="&#34;">
<circle id="Ellipse" cx="52.1854" cy="51.767" r="51.767" fill="white"/>
<path id="&#226;&#128;&#156;" d="M66.2065 69.51C63.4371 69.51 61.0698 68.5273 59.1045 66.562C57.2285 64.5073 56.2905 62.006 56.2905 59.058C56.2905 53.5193 57.8985 48.5613 61.1145 44.184C64.4198 39.7173 68.2165 36.3673 72.5045 34.134L73.0405 34C73.7551 34 74.1125 34.3573 74.1125 35.072C74.1125 35.34 73.9785 35.608 73.7105 35.876C71.5665 37.752 69.9138 39.6727 68.7525 41.638C67.5911 43.514 67.0105 45.2113 67.0105 46.73C67.0105 48.338 67.8591 49.678 69.5565 50.75C71.6111 51.9113 73.1745 53.1173 74.2465 54.368C75.4078 55.6187 75.9885 57.3607 75.9885 59.594C75.9885 62.3633 75.0058 64.7307 73.0405 66.696C71.1645 68.572 68.8865 69.51 66.2065 69.51ZM38.2005 69.51C35.5205 69.51 33.1978 68.5273 31.2325 66.562C29.3565 64.5073 28.4185 62.006 28.4185 59.058C28.4185 53.5193 30.0711 48.5613 33.3765 44.184C36.6818 39.7173 40.3891 36.412 44.4985 34.268C44.6771 34.1787 44.9005 34.134 45.1685 34.134C45.7938 34.134 46.1065 34.4913 46.1065 35.206C46.1065 35.474 46.0171 35.6973 45.8385 35.876C43.6945 37.8413 42.0418 39.8067 40.8805 41.772C39.7191 43.648 39.1385 45.3007 39.1385 46.73C39.1385 48.7847 39.9871 50.1247 41.6845 50.75C43.6498 51.7327 45.1685 52.894 46.2405 54.234C47.4018 55.574 47.9825 57.3607 47.9825 59.594C47.9825 62.3633 47.0445 64.7307 45.1685 66.696C43.2925 68.572 40.9698 69.51 38.2005 69.51Z" fill="#2E4049"/>
</g>
</svg>

<svg width="104" height="104" fill="none" xmlns="http://www.w3.org/2000/svg"><circle cx="52.185" cy="51.767" r="51.767" fill="#fff"/><path d="M66.207 69.51c-2.77 0-5.137-.983-7.102-2.948-1.877-2.055-2.814-4.556-2.814-7.504 0-5.539 1.608-10.497 4.824-14.874 3.305-4.467 7.101-7.817 11.39-10.05L73.04 34c.715 0 1.072.357 1.072 1.072 0 .268-.133.536-.401.804-2.144 1.876-3.797 3.797-4.959 5.762-1.16 1.876-1.742 3.573-1.742 5.092 0 1.608.85 2.948 2.546 4.02 2.055 1.161 3.618 2.367 4.69 3.618 1.162 1.25 1.743 2.993 1.743 5.226 0 2.77-.983 5.137-2.949 7.102-1.876 1.876-4.154 2.814-6.834 2.814Zm-28.006 0c-2.68 0-5.003-.983-6.968-2.948-1.877-2.055-2.814-4.556-2.814-7.504 0-5.539 1.652-10.497 4.957-14.874 3.306-4.467 7.013-7.772 11.123-9.916.178-.09.401-.134.67-.134.625 0 .938.357.938 1.072a.91.91 0 0 1-.268.67c-2.145 1.965-3.797 3.93-4.959 5.896-1.16 1.876-1.742 3.529-1.742 4.958 0 2.055.85 3.395 2.547 4.02 1.965.983 3.483 2.144 4.555 3.484 1.162 1.34 1.742 3.127 1.742 5.36 0 2.77-.938 5.137-2.813 7.102-1.877 1.876-4.2 2.814-6.968 2.814Z" fill="#2E4049"/></svg>
